X:1
T: Marfa's Hairbrush
C:Gordy Euler
R:Reel
Q: 232
K:A
M:4/4
L:1/8
|:A2 E2 B3d|cA A1/2A1/2A BA GA|FA A1/2A1/2A EA cA|FB dB AG FG|
A2 E2 B3d|cA A1/2A1/2A BA GA|FA A1/2A1/2A EA cA|FB dB A4:|
|:E2 GE BE GF|E2 dE cE Bc|A2 cA eA cB|A2 cA eA cA|
|1d2 fd =gd fd|A2 cA dA cA|B2 dB eB fe|dc BA GE E2:|
|2B2 ^dB fB dc|B2 fB gB fB|e^d ef gf ga|ba gf ed cB||
